public/assets/images/icons/blue/visibility-invisible/info-circle-full.svg

<svg width="16" height="16" xmlns="http://www.w3.org/2000/svg" viewBox="0 0 16 16" shape-rendering="geometricPrecision" fill="#24437c"><defs><mask id="a"><rect fill="#fff" width="100%" height="100%"/><path d="M12.997.858a4.809 4.809 0 0 0-4.253 2.563 4.81 4.81 0 0 0 8.506 0A4.812 4.812 0 0 0 12.997.858z" fill="#000"/></mask></defs><path d="M12.997 1.611a3.394 3.394 0 0 0-3.003 1.81 3.397 3.397 0 0 0 6.006 0 3.398 3.398 0 0 0-3.003-1.81zm-.001 3.396a1.587 1.587 0 1 1 0-3.174 1.587 1.587 0 0 1 0 3.174z" fill="#cb1800"/><g mask="url(#a)"><path d="M8 1.001a7 7 0 1 0 .003 14 7 7 0 0 0-.003-14zm.127 2.279c.554 0 1 .458 1 1.024a1.01 1.01 0 0 1-1 1.021 1.012 1.012 0 0 1-1.001-1.021c0-.566.448-1.024 1.001-1.024zm1.974 8.948H6.115v-1.015h.986V7.136h-.983v-.761h2.996v4.839h.987v1.014z"/></g></svg>

<?xml version="1.0"?><!DOCTYPE svg PUBLIC "-//W3C//DTD SVG 1.1//EN" "http://www.w3.org/Graphics/SVG/1.1/DTD/svg11.dtd"><svg width="16px" height="16px" xmlns="http://www.w3.org/2000/svg" viewBox="0 0 16 16" shape-rendering="geometricPrecision" fill="#24437c"><defs><mask id="visibility-invisible-path"><rect fill="#fff" width="100%" height="100%"/><path d="M12.997,0.858c-1.845,0-3.446,1.039-4.253,2.563c0.808,1.523,2.408,2.562,4.253,2.562 c1.844,0,3.444-1.039,4.253-2.562C16.441,1.897,14.841,0.858,12.997,0.858z" fill="#000"/></mask></defs><g id="visibility-invisible" display="inline" fill="#cb1800"><g><g><path d="M12.997,1.611c-1.303,0-2.433,0.733-3.003,1.81c0.57,1.075,1.7,1.809,3.003,1.809c1.302,0,2.432-0.733,3.003-1.809 C15.429,2.345,14.299,1.611,12.997,1.611z M12.996,5.007c-0.876,0-1.587-0.71-1.587-1.586c0-0.877,0.711-1.588,1.587-1.588 c0.877,0,1.588,0.711,1.588,1.588C14.584,4.297,13.873,5.007,12.996,5.007z"/></g></g></g><g mask="url(#visibility-invisible-path)"><path d="M8,1.001c-3.866,0-6.999,3.135-6.999,7.003C1.003,11.867,4.134,14.999,8,15.001 c3.867-0.002,7.001-3.134,7.001-6.997C15.001,4.136,11.867,1.001,8,1.001z M8.127,3.28c0.554,0,1,0.458,1,1.024 c0,0.562-0.446,1.021-1,1.021c-0.553,0-1.001-0.459-1.001-1.021C7.126,3.738,7.574,3.28,8.127,3.28z M10.101,12.228H6.115v-1.015 h0.986V7.136H6.118V6.375h2.996v4.839h0.987V12.228z"/></g></svg>
